X: 336
T:Roaring Barmaid
R:jig
C:Anthony O'Sullivan
M:6/8
Z: Crummy, Peter
K:G
GFG EGD|GFG EGD|DEG BGG|dGG  BGG|
GFG EGD|GFG EGD|GAB deg|deg edB:||
deg b~b2|bab deg|b~b2 bag|edB deg|
b~b2 bab|agg bgg|agg deg|deg edB:||
<end>
<start>
